src/assets/duotone/Gameboy.svg

<svg width="24" height="24" viewBox="0 0 24 24"  xmlns="http://www.w3.org/2000/svg">
<path opacity="0.4" d="M17 22H7C4.8 22 3 20.2 3 18V6C3 3.8 4.8 2 7 2H17C19.2 2 21 3.8 21 6V18C21 20.2 19.2 22 17 22Z" />
<path d="M16.25 11H7.75C6.79 11 6 10.21 6 9.25V6.75C6 5.79 6.79 5 7.75 5H16.25C17.21 5 18 5.79 18 6.75V9.25C18 10.21 17.21 11 16.25 11Z" />
<path d="M10.8599 17.0797L10.2099 16.4297L10.8299 15.8097C11.1199 15.5197 11.1199 15.0397 10.8299 14.7497C10.5399 14.4597 10.0599 14.4597 9.76993 14.7497L9.14993 15.3697L8.55994 14.7798C8.26994 14.4898 7.78994 14.4898 7.49994 14.7798C7.20994 15.0698 7.20994 15.5498 7.49994 15.8398L8.08994 16.4297L7.46994 17.0497C7.17994 17.3397 7.17994 17.8197 7.46994 18.1097C7.61994 18.2597 7.80994 18.3297 7.99994 18.3297C8.18994 18.3297 8.37994 18.2597 8.52994 18.1097L9.14993 17.4897L9.79993 18.1397C9.94993 18.2897 10.1399 18.3597 10.3299 18.3597C10.5199 18.3597 10.7099 18.2897 10.8599 18.1397C11.1499 17.8497 11.1499 17.3697 10.8599 17.0797Z" />
<path d="M16.51 16.3301C15.96 16.3301 15.5 15.8801 15.5 15.3301C15.5 14.7801 15.94 14.3301 16.49 14.3301H16.51C17.06 14.3301 17.51 14.7801 17.51 15.3301C17.51 15.8801 17.06 16.3301 16.51 16.3301Z" />
<path d="M14.4902 18.4905C13.9402 18.4905 13.4902 18.0505 13.4902 17.5005V17.4805C13.4902 16.9305 13.9402 16.4805 14.4902 16.4805C15.0402 16.4805 15.4902 16.9305 15.4902 17.4805C15.4902 18.0305 15.0402 18.4905 14.4902 18.4905Z" />
</svg>

<?xml version="1.0" encoding="UTF-8"?>
<svg width="24" height="24" viewBox="0 0 24 24" xmlns="http://www.w3.org/2000/svg">
 <path d="m17 22h-10c-2.2 0-4-1.8-4-4v-12c0-2.2 1.8-4 4-4h10c2.2 0 4 1.8 4 4v12c0 2.2-1.8 4-4 4z" opacity=".4"/>
 <path d="M16.25 11H7.75C6.79 11 6 10.21 6 9.25V6.75C6 5.79 6.79 5 7.75 5H16.25C17.21 5 18 5.79 18 6.75V9.25C18 10.21 17.21 11 16.25 11Z"/>
 <path d="m10.86 17.08-0.65-0.65 0.62-0.62c0.29-0.29 0.29-0.77 0-1.06s-0.77-0.29-1.06 0l-0.62 0.62-0.58999-0.5899c-0.29-0.29-0.77-0.29-1.06 0s-0.29 0.77 0 1.06l0.59 0.5899-0.62 0.62c-0.29 0.29-0.29 0.77 0 1.06 0.15 0.15 0.34 0.22 0.53 0.22s0.38-0.07 0.53-0.22l0.61999-0.62 0.65 0.65c0.15 0.15 0.33997 0.22 0.52997 0.22s0.38-0.07 0.53-0.22c0.29-0.29 0.29-0.77 0-1.06z"/>
 <path d="m16.51 16.33c-0.55 0-1.01-0.45-1.01-1s0.44-1 0.99-1h0.02c0.55 0 1 0.45 1 1s-0.45 1-1 1z"/>
 <path d="m14.49 18.49c-0.55 0-1-0.44-1-0.99v-0.02c0-0.55 0.45-1 1-1s1 0.45 1 1-0.45 1.01-1 1.01z"/>
</svg>
